res/skins/LateNight/palemoon/buttons/btn_embedded_spinbox.svg

<?xml version="1.0" encoding="UTF-8" standalone="no"?>
<svg
   xmlns:dc="http://purl.org/dc/elements/1.1/"
   xmlns:cc="http://creativecommons.org/ns#"
   xmlns:rdf="http://www.w3.org/1999/02/22-rdf-syntax-ns#"
   xmlns:svg="http://www.w3.org/2000/svg"
   xmlns="http://www.w3.org/2000/svg"
   xmlns:xlink="http://www.w3.org/1999/xlink"
   id="svg26"
   version="1.1"
   height="26"
   width="26">
  <metadata
     id="metadata30">
    <rdf:RDF>
      <cc:Work
         rdf:about="">
        <dc:format>image/svg+xml</dc:format>
        <dc:type
           rdf:resource="http://purl.org/dc/dcmitype/StillImage" />
        <dc:title></dc:title>
      </cc:Work>
    </rdf:RDF>
  </metadata>
  <defs
     id="defs18">
    <linearGradient
       id="linearGradient874"
       x1="-1"
       x2="-1"
       y1="2"
       y2="25"
       gradientTransform="translate(2.50005 -.507121)"
       gradientUnits="userSpaceOnUse">
      <stop
         stop-color="#393939"
         offset="0"
         id="stop868"
         style="stop-color:#1c1c1c;stop-opacity:1" />
      <stop
         stop-color="#393939"
         offset="0.30102351"
         id="stop870"
         style="stop-color:#1e1e1e;stop-opacity:1" />
      <stop
         stop-color="#141414"
         offset="1"
         id="stop872"
         style="stop-color:#0f0f0f;stop-opacity:1" />
    </linearGradient>
    <linearGradient
       gradientUnits="userSpaceOnUse"
       gradientTransform="matrix(1.0476191 0 0 1.0476191 .92857134 .92856947)"
       y2="11.056819"
       y1="2"
       x2="11.056818"
       x1="2"
       id="c">
      <stop
         id="stop2"
         offset="0" />
      <stop
         id="stop4"
         offset="1" />
      <stop
         id="stop6"
         offset="1"
         stop-opacity=".97474748"
         stop-color="#333" />
    </linearGradient>
    <linearGradient
       gradientUnits="userSpaceOnUse"
       gradientTransform="translate(2.50005 -.507121)"
       y2="25"
       y1="2"
       x2="-1"
       x1="-1"
       id="b">
      <stop
         style="stop-color:#1c1c1c;stop-opacity:1"
         id="stop11"
         offset="0"
         stop-color="#393939" />
      <stop
         style="stop-color:#1e1e1e;stop-opacity:1"
         id="stop13"
         offset=".30102351"
         stop-color="#393939" />
      <stop
         style="stop-color:#0f0f0f;stop-opacity:1"
         id="stop15"
         offset="1"
         stop-color="#141414" />
    </linearGradient>
    <linearGradient
       gradientUnits="userSpaceOnUse"
       y2="24"
       x2="22"
       y1="3"
       x1="22"
       id="linearGradient866"
       xlink:href="#linearGradient874" />
  </defs>
  <path
     id="path1053"
     style="color:#000000;font-style:normal;font-variant:normal;font-weight:normal;font-stretch:normal;font-size:medium;line-height:normal;font-family:sans-serif;font-variant-ligatures:normal;font-variant-position:normal;font-variant-caps:normal;font-variant-numeric:normal;font-variant-alternates:normal;font-variant-east-asian:normal;font-feature-settings:normal;font-variation-settings:normal;text-indent:0;text-align:start;text-decoration:none;text-decoration-line:none;text-decoration-style:solid;text-decoration-color:#000000;letter-spacing:normal;word-spacing:normal;text-transform:none;writing-mode:lr-tb;direction:ltr;text-orientation:mixed;dominant-baseline:auto;baseline-shift:baseline;text-anchor:start;white-space:normal;shape-padding:0;shape-margin:0;inline-size:0;clip-rule:nonzero;display:inline;overflow:visible;visibility:visible;opacity:1;isolation:auto;mix-blend-mode:normal;color-interpolation:sRGB;color-interpolation-filters:linearRGB;solid-color:#000000;solid-opacity:1;vector-effect:none;fill:#000000;fill-opacity:1;fill-rule:nonzero;stroke:none;stroke-width:1;stroke-linecap:square;stroke-linejoin:miter;stroke-miterlimit:4;stroke-dasharray:none;stroke-dashoffset:0;stroke-opacity:1;paint-order:fill markers stroke;color-rendering:auto;image-rendering:auto;shape-rendering:auto;text-rendering:auto;enable-background:accumulate;stop-color:#000000;stop-opacity:1"
     d="M 1.0507812,0 C 0.48205432,0 0,0.482054 0,1.050781 V 24.949219 C 0,25.517946 0.48205432,26 1.0507812,26 H 24.949219 C 25.517946,26 26,25.517946 26,24.949219 V 1.050781 C 26,0.482054 25.517946,0 24.949219,0 Z M 3,3 H 24.5 V 24.5 H 3 Z" />
  <path
     id="path22"
     style="font-variant-ligatures:normal;font-variant-position:normal;font-variant-caps:normal;font-variant-numeric:normal;font-variant-alternates:normal;font-feature-settings:normal;text-indent:0;text-decoration:none;text-decoration-line:none;text-decoration-style:solid;text-decoration-color:#000001;text-transform:none;text-orientation:mixed;white-space:normal;shape-padding:0;isolation:auto;mix-blend-mode:normal;fill:#1b1b1d;fill-opacity:1"
     solid-color="#000001"
     shape-rendering="auto"
     image-rendering="auto"
     fill="url(#b)"
     dominant-baseline="auto"
     color-rendering="auto"
     color="#000001"
     d="M 1,2.5 1,24.992188 H 2 V 2.5" />
  <path
     id="path858"
     d="M 2,25 V 24 H 24 V 3 l 1,-1 v 23 z"
     style="fill:#202022;fill-opacity:1;stroke:none;stroke-width:1px;stroke-linecap:butt;stroke-linejoin:miter;stroke-opacity:1" />
  <path
     d="M 25,1.0000005 1.5,0.992188 c -0.2761309,2.761e-5 -0.4999724,0.2238691 -0.5,0.5 V 2.5 H 2 V 2 h 23"
     color="#000001"
     color-rendering="auto"
     dominant-baseline="auto"
     fill="url(#b)"
     image-rendering="auto"
     shape-rendering="auto"
     solid-color="#000001"
     style="font-variant-ligatures:normal;font-variant-position:normal;font-variant-caps:normal;font-variant-numeric:normal;font-variant-alternates:normal;font-feature-settings:normal;text-indent:0;text-decoration:none;text-decoration-line:none;text-decoration-style:solid;text-decoration-color:#000001;text-transform:none;text-orientation:mixed;white-space:normal;shape-padding:0;isolation:auto;mix-blend-mode:normal;fill:#242426;fill-opacity:1"
     id="path22-6" />
</svg>

<svg width="26" height="26" version="1.1" xmlns="http://www.w3.org/2000/svg" xmlns:xlink="http://www.w3.org/1999/xlink">
  <path d="M 1.0507812,0 C 0.48205432,0 0,0.482054 0,1.050781 V 24.949219 C 0,25.517946 0.48205432,26 1.0507812,26 H 24.949219 C 25.517946,26 26,25.517946 26,24.949219 V 1.050781 C 26,0.482054 25.517946,0 24.949219,0 Z M 3,3 H 24.5 V 24.5 H 3 Z" color="#000000" color-rendering="auto" dominant-baseline="auto" image-rendering="auto" shape-rendering="auto" solid-color="#000000" stop-color="#000000" style="font-feature-settings:normal;font-variant-alternates:normal;font-variant-caps:normal;font-variant-east-asian:normal;font-variant-ligatures:normal;font-variant-numeric:normal;font-variant-position:normal;font-variation-settings:normal;inline-size:0;isolation:auto;mix-blend-mode:normal;paint-order:fill markers stroke;shape-margin:0;shape-padding:0;text-decoration-color:#000000;text-decoration-line:none;text-decoration-style:solid;text-indent:0;text-orientation:mixed;text-transform:none;white-space:normal"/>
  <path d="m1 2.5v22.4922h1v-22.4922" color="#000001" color-rendering="auto" dominant-baseline="auto" fill="#1b1b1d" image-rendering="auto" shape-rendering="auto" solid-color="#000001" style="font-feature-settings:normal;font-variant-alternates:normal;font-variant-caps:normal;font-variant-ligatures:normal;font-variant-numeric:normal;font-variant-position:normal;isolation:auto;mix-blend-mode:normal;shape-padding:0;text-decoration-color:#000001;text-decoration-line:none;text-decoration-style:solid;text-indent:0;text-orientation:mixed;text-transform:none;white-space:normal"/>
  <path d="m2 25v-1h22v-21l1-1v23z" fill="#202022"/>
  <path d="m25 1-23.5-0.0078125c-0.276131 2.761e-5 -0.499972 0.223869-0.5 0.5v1.00781h1v-0.5h23" color="#000001" color-rendering="auto" dominant-baseline="auto" fill="#242426" image-rendering="auto" shape-rendering="auto" solid-color="#000001" style="font-feature-settings:normal;font-variant-alternates:normal;font-variant-caps:normal;font-variant-ligatures:normal;font-variant-numeric:normal;font-variant-position:normal;isolation:auto;mix-blend-mode:normal;shape-padding:0;text-decoration-color:#000001;text-decoration-line:none;text-decoration-style:solid;text-indent:0;text-orientation:mixed;text-transform:none;white-space:normal"/>
</svg>
